X:18023
T:Red River Valley
R:March
C:James Kernigan, 1896
O:USA
Z:Paul Hardy's Session Tunebook 2015 (see www.paulhardy.net). Creative Commons cc by-nc-sa licenced.
M:2/4
L:1/8
Q:1/4=100
K:G
|DG|"G"B2 BB|"D7"B2 AB|"G"A G3-|G2 DG|B2 GB|"G7" d2 "C"c "G"B|"D7"A4-|A2 dc|
"G"B2 BA|"G7"G2 AB|"C"d c3-|"C#dim"c2 EE|"D7"D2 FG|A2 BA|"G"G2-"C"G2-|"G"G2|]

